icons/arrow-big-down-dash.svg

<svg width="24" height="24" viewBox="0 0 24 24" fill="none" xmlns="http://www.w3.org/2000/svg">
<path d="M17 2H7" stroke="black" stroke-width="2" stroke-linecap="round" stroke-linejoin="round"/>
<path d="M4.51442 13.3935C3.58659 13.3935 3.14752 14.5641 3.83717 15.1991C7.09774 16.7394 9.92581 19.038 12 22C14.0741 19.038 16.9022 16.7394 20.1628 15.1991C20.8525 14.5641 20.4134 13.3935 19.4856 13.3935H16.0495C15.4904 13.3935 15.0372 12.9298 15.0372 12.3577V8.07154C15.0372 6.92746 14.1306 6 13.0124 6H10.9876C9.86939 6 8.96287 6.92746 8.96287 8.07154V12.3577C8.96287 12.9298 8.50961 13.3935 7.95049 13.3935H4.51442Z" stroke="black" stroke-width="2" stroke-linecap="round" stroke-linejoin="round"/>
</svg>

<svg xmlns="http://www.w3.org/2000/svg" width="24" height="24" viewBox="0 0 24 24" fill="none" stroke="currentColor" stroke-width="2" stroke-linecap="round" stroke-linejoin="round">
<path d="M17 2H7M4.514 13.394c-.927 0-1.366 1.17-.677 1.805C7.097 16.74 9.926 19.038 12 22c2.074-2.962 4.902-5.26 8.163-6.8.69-.636.25-1.806-.677-1.806h-3.437a1.024 1.024 0 0 1-1.012-1.036V8.072c0-1.145-.906-2.072-2.025-2.072h-2.024c-1.119 0-2.025.927-2.025 2.072v4.286c0 .572-.453 1.035-1.013 1.035z"/>
</svg>
